public/dog.svg

<svg fill="none" height="146" viewBox="0 0 147 146" width="147" xmlns="http://www.w3.org/2000/svg" xmlns:xlink="http://www.w3.org/1999/xlink"><clipPath id="a"><path d="m0 0h56.7273v56.7273h-56.7273z" transform="matrix(.95881973 .28401534 -.28401534 .95881973 55.2657 37.958)"/></clipPath><rect fill="#f08a4b" fill-opacity=".48" height="117" rx="22" transform="matrix(.95881973 .28401534 -.28401534 .95881973 1.368408 -9.437745)" width="118.315" x="33.2297"/><g clip-path="url(#a)"><path d="m104.74 70.412c-.023-.3226-.18-.6206-.434-.8219l-4.255-3.3816c.162-1.6503-.6535-3.252-2.0627-4.0983l.6287-3.0805c.0921-.4508-.0916-.9133-.468-1.178-.3764-.2646-.8736-.2812-1.2667-.0421l-1.6457 1.0007.0279-2.9103c.005-.5016-.314-.9493-.7901-1.1084-.4786-.1604-1 .0066-1.2979.4104l-10.4094 14.106s-21.5117-5.2946-21.5207-5.2967c-4.4285-1.0274-7.8609-4.5765-8.7417-9.0416-.1238-.627-.7323-1.0351-1.359-.9113-.6271.1237-1.035.7322-.9114 1.3591.7874 3.9917 3.2746 7.3726 6.69 9.347-.5136.3319-1.6604 1.1915-2.6536 2.783-1.0799 1.7306-2.1579 4.6796-1.3705 9.0633l-4.3618 3.3035c-.2547.1928-.4183.4824-.452.8004l-.8299 7.8287c-.0588.5547.2869 1.0728.8221 1.2313l1.3944.413c.329.0975.6843.0438.97-.1461.2857-.1904.4721-.4976.509-.8385l.5436-5.0184 11.2111-4.1685c.0198-.0075-.0195.0087 0 0 1.0951-.4769 1.972-1.0994 2.6744-1.7986 4.5314 2.2552 10.7369 5.3285 14.7297 7.2457l-1.6332 12.2968c-.0746.5647.2723 1.0998.8186 1.2616l1.1474.3399c.6127.1815 1.2564-.168 1.4379-.7807l3.533-11.9271c1.2524-.4027 1.977-1.482 2.5689-2.5738.0187-.0343 5.8428-10.6613 5.8428-10.6613.4409.2147.8971.3939 1.3689.5337 3.249.9624 6.7879-.0585 9.2349-2.6643.221-.2357.334-.5533.31-.8761z" fill="#fff"/></g></svg>

<svg width="147" height="146" viewBox="0 0 147 146" fill="none" xmlns="http://www.w3.org/2000/svg">
<rect x="33.2297" width="118.315" height="117" rx="22" transform="rotate(16.5 33.2297 0)" fill="#F08A4B" fill-opacity="0.48"/>
<g clip-path="url(#clip0_86_75)">
<path d="M104.74 70.412C104.717 70.0894 104.56 69.7914 104.306 69.5901L100.051 66.2085C100.213 64.5582 99.3975 62.9565 97.9883 62.1102L98.617 59.0297C98.7091 58.5789 98.5254 58.1164 98.149 57.8517C97.7726 57.5871 97.2754 57.5705 96.8823 57.8096L95.2366 58.8103L95.2645 55.9C95.2695 55.3984 94.9505 54.9507 94.4744 54.7916C93.9958 54.6312 93.4744 54.7982 93.1765 55.202L82.7671 69.308C82.7671 69.308 61.2554 64.0134 61.2464 64.0113C56.8179 62.9839 53.3855 59.4348 52.5047 54.9697C52.3809 54.3427 51.7724 53.9346 51.1457 54.0584C50.5186 54.1821 50.1107 54.7906 50.2343 55.4175C51.0217 59.4092 53.5089 62.7901 56.9243 64.7645C56.4107 65.0964 55.2639 65.956 54.2707 67.5475C53.1908 69.2781 52.1128 72.2271 52.9002 76.6108L48.5384 79.9143C48.2837 80.1071 48.1201 80.3967 48.0864 80.7147L47.2565 88.5434C47.1977 89.0981 47.5434 89.6162 48.0786 89.7747L49.473 90.1877C49.802 90.2852 50.1573 90.2315 50.443 90.0416C50.7287 89.8512 50.9151 89.544 50.952 89.2031L51.4956 84.1847L62.7067 80.0162C62.7265 80.0087 62.6872 80.0249 62.7067 80.0162C63.8018 79.5393 64.6787 78.9168 65.3811 78.2176C69.9125 80.4728 76.118 83.5461 80.1108 85.4633L78.4776 97.7601C78.403 98.3248 78.7499 98.8599 79.2962 99.0217L80.4436 99.3616C81.0563 99.5431 81.7 99.1936 81.8815 98.5809L85.4145 86.6538C86.6669 86.2511 87.3915 85.1718 87.9834 84.08C88.0021 84.0457 93.8262 73.4187 93.8262 73.4187C94.2671 73.6334 94.7233 73.8126 95.1951 73.9524C98.4441 74.9148 101.983 73.8939 104.43 71.2881C104.651 71.0524 104.764 70.7348 104.74 70.412Z" fill="white"/>
</g>
<defs>
<clipPath id="clip0_86_75">
<rect width="56.7273" height="56.7273" fill="white" transform="translate(55.2657 37.958) rotate(16.5)"/>
</clipPath>
</defs>
</svg>
